X:1
T:Ave Maria
T:Ave Maria
T:Jacques Arcadelt
C:Jaques Arcadelt
%%score [ 1 2 3 4 ]
L:1/8
Q:1/4=70
M:4/4
K:F
V:1 treble nm="Soprano"
V:2 treble nm="Alto"
V:3 treble-8 nm="Tenor"
V:4 bass nm="Bass"
V:1
 A2 G2 A2 | (F2 G2) A4 | A2 c2 c4 | (B2 A2) G4 | z2 A2 G2 A2 | (F2 G2) A4 | (G2 A2) (BA) (GF) | %7
w: A- ve Ma-|ri- * a|gra- ti- a|ple- * na,|Do- mi- nus|te- * cum,|A- * ve _ Ma- *|
 G4 F4 | F2 c2 c4 | (d2 e2) f4 | e2 c2 c2 d2 | e2 f2 (fe) (dc) | d3 d c2 F2 | c2 c2 (d2 e2) | %14
w: ri- a|be- ne- dic-|ta _ tu,|be- ne- dic- ta|tu in mu- * li- *|e- ri- bus, et|be- ne- dic- *|
 f4 e2 c2 | (c2 d2) e2 (f2- | fe) (dc) d4 | c6 z2 | z2 f2 f2 e2 | d4 ^c4 | =c4 d4 | (d4 c2 BA | %22
w: tus fruc- tus|ven- * tris tu-|* * i, _ Je-|sus.|Sanc- ta Ma-|ri- a,|Ma- ter|De- * * *|
 B4) A4 | z2 A2 c2 d2 | c4 B4 | (A4 G2) A2 | (BAGF G2) G2 | F4 (F2 A2) | c2 d2 c2 B2 | (A4 G2) A2 | %30
w: * i,|o- ra pro|no- bis|pec- * ca-|to- * * * * ri-|bus, nunc _|et in ho- ra|mor- * tis|
 (BAGF G4) | F4 F4 | F8 |] %33
w: no- * * * *|strae. A-|men.|
V:2
 F2 E2 C2 | (D2 E2) F4 | F2 F2 F4 | F4 E4 | z2 F2 E2 C2 | (D2 E2) F4 | (E2 F2) F2 D2 | E4 F4 | %8
w: A- ve Ma-|ri- * a|gra- ti- a|ple- na,|Do- mi- nus|te- * cum,|A- * ve Ma-|ri- a|
 F2 F2 F4 | (F2 A2) A4 | A2 E2 E2 G2 | G2 A2 G2 E2 | G3 G E2 F2 | F2 F2 (F2 A2) | A4 A2 E2 | %15
w: be- ne- dic-|ta _ tu,|be- ne- dic- ta|tu in mu- li-|e- ri- bus, et|be- ne- dic- *|tus fruc- tus|
 (E2 G2) G2 (A2 | G2) E2 G4 | E6 z2 | z2 A2 A2 A2 | F4 E4 | E4 F4 | F8- | F4 F4 | z2 F2 F2 F2 | %24
w: ven- * tris tu-|* i, Je-|sus.|Sanc- ta Ma-|ri- a,|Ma- ter|De-|* i,|o- ra pro|
 F4 D4 | (F4 C2) C2 | (D2 A,2 C2) C2 | C4 (C2 F2) | E2 F2 F2 D2 | (F4 C2) C2 | (D2 A,2 C4) | %31
w: no- bis|pec- * ca-|to- * * ri-|bus, nunc _|et in ho- ra|mor- * tis|no- * *|
 C4 D4 | C8 |] %33
w: strae. A-|men.|
V:3
 c2 c2 A2 | (A2 c2) c4 | c2 A2 A4 | (d2 c2) c4 | z2 c2 c2 A2 | (A2 c2) c4 | c4 d2 A2 | c4 A4 | %8
w: A- ve Ma-|ri- * a|gra- ti- a|ple- * na,|Do- mi- nus|te- * cum,|A- ve Ma-|ri- a|
 A2 A2 A4 | (A2 ^c2) d4 | =c2 c2 c2 =B2 | c2 c2 c2 c2 | =B2 B2 c2 A2 | A2 A2 (A2 ^c2) | d4 =c2 c2 | %15
w: be- ne- dic-|ta _ tu,|be- ne- dic- ta|tu in mu- li-|e- ri- bus, et|be- ne- dic- *|tus fruc- tus|
 (c2 =B2) c2 c2 | c4 (c2 =B2) | c6 z2 | z2 c2 c2 c2 | A4 A4 | G4 B4 | (B4 A2 c2 | d4) c4 | %23
w: ven- * tris tu-|i, Je- *|sus.|Sanc- ta Ma-|ri- a,|Ma- ter|De- * *|* i,|
 z2 c2 A2 B2 | A4 G4 | (A4 c2) F2 | F6 E2 | F4 (A2 F2) | G2 B2 A2 G2 | (A4 c2) F2 | (F6 E2) | %31
w: o- ra pro|no- bis|pec- * ca-|to- ri-|bus, nunc _|et in ho- ra|mor- * tis|no- *|
 F4 B4 | A8 |] %33
w: strae. A-|men.|
V:4
 F,2 C,2 F,2 | (D,2 C,2) F,4 | F,2 F,2 F,4 | (B,,2 F,2) C,4 | z2 F,2 C,2 F,2 | (D,2 C,2) F,4 | %6
w: A- ve Ma-|ri- * a|gra- ti- a|ple- * na,|Do- mi- nus|te- * cum,|
 (C,2 F,2) B,,2 D,2 | C,4 F,,4 | F,2 F,2 F,4 | (D,2 A,,2) D,4 | A,2 A,2 A,2 G,2 | C,2 F,2 C,2 A,2 | %12
w: A- * ve Ma-|ri- a|be- ne- dic-|ta _ tu,|be- ne- dic- ta|tu in mu- li-|
 G,2 G,,2 C,2 F,2 | F,2 F,2 (D,2 A,,2) | D,4 A,2 A,2 | (A,2 G,2) C,2 F,2 | (C,2 A,2) G,4 | C6 z2 | %18
w: e- ri- bus, et|be- ne- dic- *|tus fruc- tus|ven- * tris tu-|i, _ Je-|sus.|
 z2 F,2 F,2 A,2 | D,4 A,,4 | C,4 B,,4 | (B,,4 F,4 | B,,4) F,4 | z2 F,2 F,2 B,,2 | F,4 G,4 | %25
w: Sanc- ta Ma-|ri- a,|Ma- ter|De- *|* i,|o- ra pro|no- bis|
 (D,4 E,2) F,2 | (B,,2 D,2) C,4 | F,,4 (F,2 D,2) | C,2 B,,2 F,2 G,2 | (D,4 E,2) F,2 | %30
w: pec- * ca-|to- * ri-|bus, nunc _|et in ho- ra|mor- * tis|
 (B,,2 D,2 C,4) | F,4 B,,4 | F,,8 |] %33
w: no- * *|strae. A-|men.|

